resources/images/DonateGoldIconWhite.svg

<svg xmlns="http://www.w3.org/2000/svg" width="512" height="512" shape-rendering="geometricPrecision" image-rendering="optimizeQuality" fill-rule="evenodd" fill="#fefffe" xmlns:v="https://vecta.io/nano"><path d="M241.5 26.5c41.575-2.4621 73.742 13.5379 96.5 48 17.605 33.169 17.938 66.503 1 100-26.736 40.936-64.236 56.436-112.5 46.5-43.206-13.915-67.372-43.415-72.5-88.5-1.216-41.7486 15.951-73.2486 51.5-94.5 11.534-5.7085 23.534-9.5419 36-11.5zm0 27c43.93-2.3083 71.43 17.6917 82.5 60 3.415 38.676-12.752 65.509-48.5 80.5-37.348 9.447-66.181-2.053-86.5-34.5-16.555-38.619-8.055-70.452 25.5-95.5 8.548-5.0096 17.548-8.5096 27-10.5zm8 18c9.104-1.2312 13.437 2.7688 13 12 11.829.3038 15.996 5.9704 12.5 17-5.017 4.625-10.517 5.125-16.5 1.5-4.005-1.098-7.505-.265-10.5 2.5-.667 1.333-.667 2.667 0 4 6.229 3.867 12.729 7.367 19.5 10.5 13.621 9.988 16.454 22.488 8.5 37.5-3.786 4.56-8.453 7.894-14 10 .548 9.789-3.952 13.956-13.5 12.5-4.09-2.674-6.09-6.507-6-11.5-4.435-1.201-8.768-2.701-13-4.5-5.529-6.407-4.863-12.074 2-17 2.667-.667 5.333-.667 8 0 6.379 3.417 12.546 3.25 18.5-.5 1.293-4.082.126-7.249-3.5-9.5-7.442-2.887-14.442-6.554-21-11-6.592-6.886-8.759-15.052-6.5-24.5 2.83-8.6646 8.663-13.9979 17.5-16-1.127-5.5859.54-9.9192 5-13zm262 203v18c-2.955 10.156-8.622 18.656-17 25.5l-135 106c-11.903 6.412-24.569 10.412-38 12l-169 1c-4.636.879-8.969 2.545-13 5l-63 40c-8.4573 4.384-15.6239 2.884-21.5-4.5l-55.5-73v-9c3.36557-4.877 7.36557-9.377 12-13.5l102-93c35.683-26.305 74.017-30.972 115-14 12.664 7.335 25.997 13.001 40 17 21.333.667 42.667.667 64 0 8.306-7.151 16.973-13.818 26-20 18.375-8.056 35.042-5.556 50 7.5l40-31.5c22.722-10.987 41.888-6.487 57.5 13.5 2.297 4.26 4.13 8.593 5.5 13zm-43-6c14.367 1.549 19.2 9.216 14.5 23L348.5 399c-8.484 4.743-17.484 8.076-27 10l-176 2c-7.107 1.553-13.774 4.22-20 8L71 453.5 31.5 402l99-92c24.68-18.479 51.68-22.812 81-13 11.789 5.394 23.456 11.061 35 17 6.816 2.43 13.816 4.097 21 5l68 1c8.662 3.664 11.162 9.83 7.5 18.5-2.464 3.79-5.964 5.956-10.5 6.5l-158 10c-7.947 4.459-10.113 10.959-6.5 19.5 1.873 2.209 4.04 4.042 6.5 5.5 55.366-2.1 110.7-5.1 166-9 13.833-3.169 23.333-11.336 28.5-24.5l89.5-72.5c2.989-2.657 6.322-4.491 10-5.5zm-91 25c3.352.284 6.352 1.45 9 3.5l-18 15c-.667.667-1.333.667-2 0-1.81-2.644-3.81-5.144-6-7.5 4.949-4.981 10.615-8.648 17-11z"/></svg>

<?xml version="1.0" encoding="UTF-8"?>
<!DOCTYPE svg PUBLIC "-//W3C//DTD SVG 1.1//EN" "http://www.w3.org/Graphics/SVG/1.1/DTD/svg11.dtd">
<svg xmlns="http://www.w3.org/2000/svg" version="1.1" width="512px" height="512px" style="shape-rendering:geometricPrecision; text-rendering:geometricPrecision; image-rendering:optimizeQuality; fill-rule:evenodd; clip-rule:evenodd" xmlns:xlink="http://www.w3.org/1999/xlink">
<g><path style="opacity:1" fill="#fefffe" d="M 241.5,26.5 C 283.075,24.0379 315.242,40.0379 338,74.5C 355.605,107.669 355.938,141.003 339,174.5C 312.264,215.436 274.764,230.936 226.5,221C 183.294,207.085 159.128,177.585 154,132.5C 152.784,90.7514 169.951,59.2514 205.5,38C 217.034,32.2915 229.034,28.4581 241.5,26.5 Z M 241.5,53.5 C 285.43,51.1917 312.93,71.1917 324,113.5C 327.415,152.176 311.248,179.009 275.5,194C 238.152,203.447 209.319,191.947 189,159.5C 172.445,120.881 180.945,89.048 214.5,64C 223.048,58.9904 232.048,55.4904 241.5,53.5 Z"/></g>
<g><path style="opacity:1" fill="#fefffe" d="M 249.5,71.5 C 258.604,70.2688 262.937,74.2688 262.5,83.5C 274.329,83.8038 278.496,89.4704 275,100.5C 269.983,105.125 264.483,105.625 258.5,102C 254.495,100.902 250.995,101.735 248,104.5C 247.333,105.833 247.333,107.167 248,108.5C 254.229,112.367 260.729,115.867 267.5,119C 281.121,128.988 283.954,141.488 276,156.5C 272.214,161.06 267.547,164.394 262,166.5C 262.548,176.289 258.048,180.456 248.5,179C 244.41,176.326 242.41,172.493 242.5,167.5C 238.065,166.299 233.732,164.799 229.5,163C 223.971,156.593 224.637,150.926 231.5,146C 234.167,145.333 236.833,145.333 239.5,146C 245.879,149.417 252.046,149.25 258,145.5C 259.293,141.418 258.126,138.251 254.5,136C 247.058,133.113 240.058,129.446 233.5,125C 226.908,118.114 224.741,109.948 227,100.5C 229.83,91.8354 235.663,86.5021 244.5,84.5C 243.373,78.9141 245.04,74.5808 249.5,71.5 Z"/></g>
<g><path style="opacity:1" fill="#fefffe" d="M 511.5,274.5 C 511.5,280.5 511.5,286.5 511.5,292.5C 508.545,302.656 502.878,311.156 494.5,318C 449.787,353.715 404.787,389.048 359.5,424C 347.597,430.412 334.931,434.412 321.5,436C 265.167,436.333 208.833,436.667 152.5,437C 147.864,437.879 143.531,439.545 139.5,442C 118.669,455.583 97.6691,468.916 76.5,482C 68.0427,486.384 60.8761,484.884 55,477.5C 36.4796,453.098 17.9796,428.765 -0.5,404.5C -0.5,401.5 -0.5,398.5 -0.5,395.5C 2.86557,390.623 6.86557,386.123 11.5,382C 45.7994,351.369 79.7994,320.369 113.5,289C 149.183,262.695 187.517,258.028 228.5,275C 241.164,282.335 254.497,288.001 268.5,292C 289.833,292.667 311.167,292.667 332.5,292C 340.806,284.849 349.473,278.182 358.5,272C 376.875,263.944 393.542,266.444 408.5,279.5C 421.977,269.191 435.31,258.691 448.5,248C 471.222,237.013 490.388,241.513 506,261.5C 508.297,265.76 510.13,270.093 511.5,274.5 Z M 468.5,268.5 C 482.867,270.049 487.7,277.716 483,291.5C 438.455,327.713 393.622,363.547 348.5,399C 340.016,403.743 331.016,407.076 321.5,409C 262.813,409.04 204.147,409.707 145.5,411C 138.393,412.553 131.726,415.22 125.5,419C 107.333,430.5 89.1667,442 71,453.5C 57.707,436.406 44.5404,419.239 31.5,402C 64.135,371.035 97.135,340.368 130.5,310C 155.18,291.521 182.18,287.188 211.5,297C 223.289,302.394 234.956,308.061 246.5,314C 253.316,316.43 260.316,318.097 267.5,319C 290.167,319.333 312.833,319.667 335.5,320C 344.162,323.664 346.662,329.83 343,338.5C 340.536,342.29 337.036,344.456 332.5,345C 279.776,347.788 227.11,351.121 174.5,355C 166.553,359.459 164.387,365.959 168,374.5C 169.873,376.709 172.04,378.542 174.5,380C 229.866,377.9 285.2,374.9 340.5,371C 354.333,367.831 363.833,359.664 369,346.5C 398.559,321.974 428.392,297.807 458.5,274C 461.489,271.343 464.822,269.509 468.5,268.5 Z M 377.5,293.5 C 380.852,293.784 383.852,294.95 386.5,297C 380.5,302 374.5,307 368.5,312C 367.833,312.667 367.167,312.667 366.5,312C 364.69,309.356 362.69,306.856 360.5,304.5C 365.449,299.519 371.115,295.852 377.5,293.5 Z"/></g>
</svg>
